X: 19361
T: Jack The Lighthouse's
R: reel
M: 4/4
K: Dmajor
AddB cABG|AddB cdeg|AddB cABG|AFEG FDD2:|
f2fe d2dB|A2AF ABde|f2fe d2dB|AFEG FDD2|
f2fe dDBD|ADFD ABde|fdec dBAF|AFEG FDD2||

